data/styles/clear/style-clear/symbols/furniture-m.svg

<svg height="24" viewBox="0 0 24 24" width="24"><g fill="none" fill-rule="evenodd"><circle cx="12" cy="12" fill="#fff" opacity=".6" r="12"/><circle cx="12" cy="12" fill="#8c5f93" r="11"/><path d="m18 12.8c0 .5216-.3867692.9608-.9230769 1.1264v4.0736h-1.8461539v-1.6h-6.46153843v1.6h-1.84615385v-4.0736c-.53630769-.1656-.92307692-.6048-.92307692-1.1264 0-.6624.62030769-1.2 1.38461538-1.2.76338462 0 1.38369231.5368 1.38461539 1.1984v1.2016h1.10769231v-1.2024c-.00184616-1.0528-.87784616-1.9288-2.03076923-2.1168v-3.6016c1.20738461-.684 2.63907695-1.0792 4.15476925-1.0792 1.5138461 0 2.9455384.3944 4.1529231 1.0792v3.6016c-1.1529231.188-2.0289231 1.0648-2.0307693 2.1176v1.2016h1.1076923v-1.2016c.0009231-.6616.6212308-1.1984 1.3846154-1.1984.7643077 0 1.3846154.5376 1.3846154 1.2z" fill="#fff"/></g></svg>

<svg width="24" height="24" viewBox="0 0 24 24">
  <g fill="none" fill-rule="evenodd">
    <circle cx="12" cy="12" r="12" fill="#FFF" opacity=".6"/>
    <circle cx="12" cy="12" r="11" fill="#8C5F93"/>
    <path fill="#FFF" d="M18,12.8 C18,13.3216 17.6132308,13.7608 17.0769231,13.9264 L17.0769231,18 L15.2307692,18 L15.2307692,16.4 L8.76923077,16.4 L8.76923077,18 L6.92307692,18 L6.92307692,13.9264 C6.38676923,13.7608 6,13.3216 6,12.8 C6,12.1376 6.62030769,11.6 7.38461538,11.6 C8.148,11.6 8.76830769,12.1368 8.76923077,12.7984 L8.76923077,14 L9.87692308,14 L9.87692308,12.7976 C9.87507692,11.7448 8.99907692,10.8688 7.84615385,10.6808 L7.84615385,7.0792 C9.05353846,6.3952 10.4852308,6 12.0009231,6 C13.5147692,6 14.9464615,6.3944 16.1538462,7.0792 L16.1538462,10.6808 C15.0009231,10.8688 14.1249231,11.7456 14.1230769,12.7984 L14.1230769,14 L15.2307692,14 L15.2307692,12.7984 C15.2316923,12.1368 15.852,11.6 16.6153846,11.6 C17.3796923,11.6 18,12.1376 18,12.8 L18,12.8 Z"/>
  </g>
</svg>
